X:1
T:Symphony No. 4 in B Flat Major
T:Fourth Movement
T:Ludwig van Beethoven
T:Adp. from arrangements by Franz Liszt and Ernst Pauer
%%score { ( 1 4 ) | ( 2 3 ) }
L:1/8
Q:1/4=130
M:2/4
K:Bb
V:1 treble nm="Piano"
V:4 treble 
V:2 bass 
V:3 bass 
V:1
"^Allegro ma non troppo." B/A/B/d/ F/G/A/B/ |{/d} c/=B/c/e/ z2 | z2 [Acfa] z | [Bdfb] z [cfac'] z | %4
 [B,D]/A,/[B,D]/F/ D/E/F/E/ | D/C/D/F/ E/F/G/F/ | [CE]/=B,/[CE]/G/ E/F/G/F/ | E/D/E/G/ F/G/_A/G/ | %8
 [DF]/E/[DF]/_A/ G/A/B/A/ | [EG]/F/[EG]/B/ =A/B/c/B/ | A/B/c/B/ A/B/c/d/ |!p! e3 c | B3 G | %13
 F z F z | [Ff][Bb][dd'][ff'] | [ee'][dd'][ee'][cc'] | [Bb][dd'] [Bb][Gg] | [Ff] z [Ff] z | %18
 d/c/d/f/ e/d/c/d/ | .[Ff] z .[Ff] z | b x x2 | A/G/F/G/ F/E/D/E/ | D/C/B,/C/ x2 | z4 | %24
 B,/D/F/B/ d/f/B/b/ | [Bdfb]3 [ff'] | [Aa][ee'][Aa][cc'] | [Ee][Gg][Cc][Ff] | z/ D/F/B/ d/B/d/b/ | %29
 [gb]/c/[gb]/c/ [gb]/c/[gb]/c/ | z/ [Aa]/z/[cc']/z/[Ff]/z/[Ac']/ | z/ d/z/[Ff]/z/A/z/[=B,=B]/ | %32
 C/c/=E/=e/!mf! G/g/A/a/ | B/b/[B=e]/b/ [Be]/b/[Be]/b/ | [B=e]/b/[Be]/b/ [Be]/b/[Be]/b/ | %35
!f! !arpeggio![=egd']!mf!c'!mp!bg |!p! f3 f | =ec'bg | af=ef | ^fg=ec | [gg']3 =f' | =e'g'c'e' | %42
 gc'=bd' | c' c_BG | [A,A][B,B][=B,=B][Cc]- | [Cc] [Cc]2 [=E=e]- | [Ee] [Ff]2 [Aa]- | %47
 [Aa] [cc']2 [=E=e] | [Gg]3 [Ff] | [=E=e][Gg][Cc][Ee] | Gc=Bd | c3!mp! [^CA^c] | [DBd]3!p! [A=c] | %53
 [B,GB]3 [Aca] | [Gcg][Fcf].[Gcg].[Aca] | [Bb]2!p!!<(! z!mp! [^CA^c]!<)! | %56
 [DBd][DBd]!>(! z!p! [A=c]!>)! | [B,GB][B,GB] z!f! [Aca] | [Gcg][Fcf].[Gcg].[Aca] | %59
 [Bb][Bb] z [Aca] | [Gcg][Fcf].[Gcg].[Aca] | [Bb][Bb] z [cc'] | [dd'][cc'][dd'][=e=e'] | %63
!ff! [f_af'] z F2- | F2 F/E/_D/C/ | [=B,D_A]2!ff! [=Bdf_a=b]2 | [=B,D_A]2!ff! [=Bdf_a=b]2 | %67
 [=B,D_A]2!ff! [=Bdf_a=b]2 | [=B,D_A]2!ff! [=Bdf_a=b]2 |!p! [G_Bc] z!p! c'2- | c'd'/c'/ z b/=a/ | %71
 z c'/b/ z a/g/ | z g/f/ z f/=e/ |!ff! [_Ad_a]2 [=Bdfa=b]2 | [=B,D_A]2 [=Bdf_a=b]2 | %75
 [=B,D_A]2 [=Bdf_a=b]2 | [=B,D_A]2 [=Bdf_a=b]2 | [=Acd] z!p! d'2- | d'e'/d'/ z c'/b/ | z2 =e'2- | %80
 e'f'/=e'/ z d'/c'/ | z f'/c'/ z!mp! a/f/ | z d'/b/ z!mf! g/c'/ | z f'/c'/ z!f! a/f/ | %84
 z d'/b/ z g/c'/ |!ff! f/f'/c'/a/ [fa]/d/A/f/ | d/d'/b/g/ [=eg]/c/G/c/ | [cac']3 [Bb] | %88
 [Aa][Aa] Tg/4a/4g/4a/4g/4a/4f/4g/4 | f/=e/f/a/ d/e/f/g/ | c/d/=e/f/ B/c/d/e/ | [Af] [cc']2 [Bb] | %92
 [Aa][Aa] Tg/4a/4g/4a/4g/4a/4f/4g/4 | f/=e/f/a/ d/e/f/g/ | c/d/=e/f/ B/c/d/e/ | %95
 [Acf][Acf] z [Aca] | [Acf][Acf] z [Aca] | [Acf][Acf] z [Aca] | [Acf][Aca] [Acf][Aca] | %99
 [Acf] z C/D/_E/=E/ | F/=E/F/A/ D/_E/F/^F/ | G/^F/G/B/ D/E/=F/^F/ | G/^F/G/B/ E/=F/^F/G/ | %103
 _A/G/A/c/ E/F/_G/=G/ | _A/G/A/c/ E/F/_G/=G/ | _A/G/A/c/ E/F/_G/=G/ | _A/G/A/c/ =A/^G/A/c/ | %107
 B/A/B/_d/ F/G/_A/=A/ | B/A/B/_d/ F/!mp!G/_A/=A/ | B/A/B/_d/ F/G/_A/=A/ | B/A/B/_d/ =B/A/B/=d/ | %111
 c/=B/c/e/ G/A/!mf!_B/=B/ | c/=B/c/e/ ^c/^B/c/=e/ |!f! d/^c/d/f/ d/c/d/f/ | d/^c/d/f/ d/c/d/f/ | %115
 ^d/^c/d/^f/ d/c/d/f/ | ^d/^c/d/^f/ d/c/d/f/ | =B/=b/B/b/ B/b/B/b/ | =B/=b/B/b/ B/b/B/b/ | C3 A, | %120
 G,3 z | c3 A | G3 =E | [cc'][=B=b][cc'][Aa] | [Gg][=B=b][Gg][=E=e] | [Dd] z [Dd] z | [Dd]4 | %127
 [Dd] z [Dd] z | [Dd]4 | [Dd] z [Dd] z |!f! G/^F/G/B/ A/G/F/G/ | [Ge]4 |!p! [GBd] z G/^F/G/c/ | %133
 G2 e2 | [GBd] z G/^F/G/c/ | [Bd]2 g2 | [df] z z2 |!ff! [Geg]4 |!p! [Fdf] z B/A/B/e/ | d z g2 | %140
 f z B/A/B/e/ | [Fdf]2 [Bgb]2 |!f! [Aa]2 x2 |!ff! [Bdb]4 |!p! [Afa] z B2 | [FA] z [Bgb]2 | %146
 [Afa] z B2 | [FA]2 [Bgb]2 | a4- | a4- | a4- | a4 | g4- | g4- | g4- | g2 z2 | %156
 c/=B/c/e/ G/A/_B/=B/ | c/=B/c/e/ G/A/_B/=B/ | c/=B/c/e/ G/A/_B/=B/ | c/=B/c/e/ G/A/_B/=B/ | %160
!ff! c/=B/c/e/ G/A/_B/=B/ | c/=B/c/e/ G/A/_B/=B/ | c/=B/c/e/ G/A/_B/=B/ | c/=B/c/e/ G/A/_B/=B/ | %164
 [FAc] z [Ace_g] z | [_GAce] z [EGAc] z | [CE_GA] z [A,CEG] z | [_G,A,CE] z [A,CE_G] z | %168
 [_G,A,CE]4 | [_G,A,CE]4 | [_G,A,CE]4 | [_G,A,CE]4 | [_G,A,CE] z!ff! [Ace_g] z | %173
 [_GAce] z [EGAc] z | [CE_GA] z [A,CEG] z | [_G,A,CE] z [A,CE_G] z | [_G,A,CE]4 | [_G,A,CE]4 | %178
 [_G,A,CE]4 | [_G,A,CE]4 | [_G,A,CE] z z2 | E/D/E/_G/ z2 | D/^C/D/F/ z2 | %183
 =C/=B,/C/E/ _B,/A,/B,/D/ | B,/A,/B,/D/ F,/G,/A,/B,/ |{/D} C/=B,/C/E/ G/F/E/D/ | C/ z/ z .[CFA] z | %187
 .[DFB] z .[FAc] z | d z F/G/A/B/ |{/d} c/=B/c/e/ g/f/e/d/ | c/_B/A/G/ .[cfa] z | %191
 .[Bdfb] z .[cfac'] z | [dfbd'] F/B/ d/f/B/b/ | [Bdfb]3 [ff'] | [Aa][ee'][Aa][cc'] | %195
 [Ee][Gg][Cc][Ff] | B,/D/F/B/ d/f/B/b/ | [Bdfb]3 [Bb] | [_A_a][cc'][Ff][Aa] | [Dd][Ff]_A[Bb] | %200
 G/B/e/g/ b/e'/g/g'/ | [gbe'g']3 [gg'] |!8va(! [_a_a'][c'c''][ff'][aa'] | %203
 [dd'][ff'][Bb][bb']!8va)! |!p! .[ee'].[gg'] .b.[ee'] | .g.[Bb] .e.[Gg] | .c.[Ee] .G.[Cc] | %207
 .E.[G,G] .C.E |!f! x4 | x4 | A,/C/E/A/ c/e/A/a/ | A/a/[ce]/c'/ [ce]/c'/[ce]/c'/ | %212
 [ce]/c'/e/e'/ [eac']/e'/[eac']/e'/ | .[eac'e']!mf! f!mp!e!p!c |!p! B3 B | Afec | dBAB |=BcAF | %218
 [cc']3 [Bb] | !arpeggio![Aca]c'[cf]a | [Ac]f[B=e]g | [Af] F_EC | DE=EF- | F F2 A- | A B2 [Dd]- | %225
 [Dd] [Ff]2 [Aa] |!p! [cc']3 [Bb] | [Aa][cc'][Ff][Aa] | c[Ff][=E=e][Gg] | %229
 [Ff] z!<(! z [^Fd^f]!<)! |!mp! [Geg]3!p!!>(! [d=f] | [Ece]3!>)!!f! [dfd'] | %232
 [cfc'][Bfb].[cfc'].[dfd'] | [ee'] z!<(! z!p! [^Fd^f] | [Geg]!<)!!mp![Geg] z!>(! [d=f] | %235
 [Ece]!p![Ece]!>)! z [dfd'] | [cfc'][Bfb].[cfc'].[dfd'] | [ee'][ee'] z [dfd'] | %238
 [cfc'][Bfb].[cfc'].[dfd'] | [ee'][ee'] z [dfd'] | [gg'][ff'][gg'][aa'] | [bb'] z [B,_DB]2- | %242
 [B,DB]2 B/_A/_G/F/ | [B,_D=E]2 [gb_d'=e']2 | [B,_D=E]2 [gb_d'=e']2 | [B,_D=E]2 [gb_d'=e']2 | %246
 [B,_D=E]2 [gb_d'=e']2 | z2!p! f2- | fg/f/ z e/d/ | z f/e/ z d/c/ | z c/B/ z B/A/ | %251
 [_D=E_d]2 [gb_d'=e']2 | [B,_D=E]2 [gb_d'=e']2 | [B,_D=E]2 [gb_d'=e']2 | [B,_D=E]2 [gb_d'=e']2 | %255
 z2!p! g2- | g_a/g/ z f/e/ | z2 [=A=a]2- | [Aa] b/a/ z g/f/ | z!p! b/f/ z d/B/ | z g/e/ z c/f/ | %261
 z b/f/ z d/B/ | z g/e/ z c/f/ | B/b/f/d/ [Bd]/G/D/B/ | G/g/d/B/ [Ac]/F/C/F/ | [FBdf]3 .[Ee] | %266
 .[Dd].[Dd] Tc/4d/4c/4d/4c/4d/4B/4c/4 | f3 e | dd Tc/4d/4c/4d/4c/4d/4B/4c/4 | [DB] [Ff]2 e | %270
 dd Tc/4d/4c/4d/4c/4d/4B/4c/4 | z f2 e | dd Tc/4d/4c/4d/4c/4d/4B/4c/4 | [B,DFB][B,DFB] z [DFd] | %274
 [B,DFB][B,DFB] z [DFd] | [B,DFB][B,DFB] z [DFd] | [DFB][DFd][DFB][DFd] | B/A/B/d/ F/G/_A/=A/ | %278
 B/A/B/d/ F/G/_A/=A/ | B/A/B/d/ F/G/_A/=A/ | B/A/B/d/ =B/A/B/d/ |!p! c/=B/c/e/ G/A/_B/=B/ | %282
 c/=B/c/e/ G/A/_B/=B/ | c/=B/c/e/ G/A/_B/=B/ | c/=B/c/e/ c/B/c/e/ | _d/c/d/f/ _A/B/=B/c/ | %286
 _d/c/d/f/ =d/^c/d/f/ | e/d/e/_g/ B/c/_d/=d/ | e/d/e/_g/ =e/^d/e/=g/ | f/=e/f/a/ [_ea_e'] z | %290
 f/!f!=e/f/a/ [_ea_e'] z | f/!f!=e/f/a/ [_ea_e'] z |!ff! f/!f!=e/f/a/ [_ea_e'] z | %293
!f! f/=e/f/a/ z2 | _e/d/e/_g/ z2 | d/^c/d/f/ z2 | =c/=B/c/e/ _B/A/B/d/ | B/A/B/d/ F/G/A/B/ | %298
 c/=B/c/e/ g/f/e/d/ | c/ z/ z [cfa] z | [Bdfb] z [cfac'] z | [Bd]/b/[Bd]/b/ [Bd]/b/[Bd]/b/ | %302
 [Be]/b/[Be]/b/ [Be]/b/[Be]/b/ | [Be]/b/[Be]/b/ [Ae]/a/[Ae]/a/ | [Bd]/b/[Bd]/b/ [ce]/c'/[ce]/c'/ | %305
 [ce]/c'/[ce]/c'/ [Ae]/a/[Ae]/a/ | [Bd]/b/[Bd]/b/ [ce]/c'/[ce]/c'/ | %307
 [ce]/c'/[ce]/c'/ [Ae]/a/[Ae]/a/ | [db]/d'/[db]/d'/ [eac']/e'/[eac']/e'/ | %309
 [eac']/e'/[eac']/e'/ [ec']/e'/[ec']/e'/ | [fd']/f'/[fd']/f'/ [gb_d']/g'/[gbd']/g'/ | %311
 [gb_d']/g'/[gbd']/g'/ [gbd']/g'/[gbd']/g'/ | [gb_d']/g'/[gbd']/g'/ [gbd']/g'/[gbd']/g'/ | %313
 [gb_d']/g'/[gbd']/g'/ [gbd']/g'/[gbd']/g'/ | [gb_d']/g'/[gbd']/g'/ [gbd']/g'/[gbd']/g'/ | %315
!>(! [CE_GA]4- | [CEGA]4!>)! |[Q:1/4=48] !fermata![CEFA]4 |[Q:1/4=130] z4 |!pp! [Ee]3 [Cc] | %320
 [B,B]3 [G,G] | [F,CEF] z [F,CEF] z | [F,B,DF]2 z2 |!p! [ee'][dd'][ee'][cc'] | [Bb][dd'][Bb][Gg] | %325
 [Fcef] z [Fcef] z | [Fdf]2 z [Bd] | [ce][df][eg][df] | [ce]2 z [Ac] | [Bd][ce][df][ce] | %330
 [Bd]2 z [dbd'] | [ee'][ff'][gg'][ff'] | [ec'e']2 z [cac'] | [dd'][ee'][ff'][ee'] | %334
!p! [dbd']2 [fd'f']2 | [ec'e']2 [g=e'g']2 | [fd'f']2 [Bf_ab]2 | [Begb]2 [Bgb]2 | %338
 z!ff! G,/=E/B,/G/E/B/ | G/=e/B/g/ e/b/g/=e'/ |!ff! [=eb=e'] z [ebe'] z | z4 | [ff'] z [ff'] z | %343
 z4 |!pp! BABd | FGAB |{/d} c=Bc[Q:1/4=48]!fermata!e |[Q:1/4=130] z2 z[Q:1/4=48] !fermata!z | %348
[Q:1/4=130] CB,A,G,- |[Q:1/4=48] !fermata!G,2[Q:1/4=130] G/F/E/D/ | C z [Acfa] z | %351
 [Bdfb] z [cfac'] z | [dfbd'] z z2 | [fac'f'] z z2 | [B,DFB] z z2 |] %355
V:2
!p! z z [B,D] z | [E,G,C] z G/F/E/D/ | C/B,/A,/G,/!f!!ped! F,/E,/!ped-up!D,/C,/ | %3
!ped! B,,/C,/!ped-up!D,/B,,/!ped! F,,/A,,/!ped-up!C,/F,/ |!pp! .B,, z B,/C/D/C/ | %5
 B,/A,/B,/ z/ C/D/E/ z/ | .B,, z C/D/E/D/ | C/=B,/C/ z/ D/E/F/ z/ | .B,, z E/F/G/ z/ | %9
 .B,, z C/D/E/D/ | C/D/E/D/ C/D/C/B,/ |!pp!!ped! A,/C/A,/C/ A,/C/A,/C/!ped-up! | %12
!ped! B,/D/B,/D/ B,/D/B,/D/!ped-up! |!ped! [F,,F,] z [F,,F,] z!ped-up! | %14
!ped! B,,/D/B,/D/ B,/D/B,/D/!ped-up! |!ped! [A,C]/F/[A,C]/F/ [A,C]/F/[A,C]/F/!ped-up! | %16
!ped! [B,D]/F/[B,D]/F/ [B,D]/F/[B,D]/F/!ped-up! |!ped! [A,C]/E/C/E/ [F,A,]/E/C/E/!ped-up! | %18
!ped! B,/A,/B,/D/ C/B,/A,/B,/!ped-up! |!mp!"^cresc." .[F,,F,] z!f! .[F,,F,] z | %20
!ff!!ped! B,/A,/B,/D/ C/B,/A,/B,/ | A,/G,/F,/G,/ F,/E,/D,/E,/ | %22
 D,/C,/B,,/C,/!ped-up! B,/A,/G,/A,/ | G,/F,/E,/D,/ .C,.F, | %24
!ped! [B,,,B,,] z [B,,D,]/F,/[B,,D,]/F,/ | [B,,D,]/F,/[B,,D,]/F,/ [B,,D,]/F,/[B,,D,]/F,/!ped-up! | %26
!ped! [B,,C,E,]/F,/[B,,C,E,]/F,/ [B,,C,E,]/F,/[B,,C,E,]/F,/ | %27
 [B,,C,E,]/F,/[B,,C,E,]/F,/ [B,,C,E,]/F,/[B,,C,E,]/F,/!ped-up! | [B,,B,][D,D] [G,,G,][B,,B,] | %29
 [=E,,=E,][G,,G,][C,,C,][E,,E,] |!ff!!ped! [F,,F,][C,C][F,,F,][A,,A,]!ped-up! | %31
!ped! D,[F,,F,][A,,,A,,][=B,,,=B,,]!ped-up! |!ped! z2 [=E,G,][F,A,]!ped-up! | [G,B,]3 z | %34
!ped! [C,,C,][B,,B,][G,,G,][=E,,=E,]!ped-up! |"^dim." [C,,C,] z z2 | %36
!ped!!pp! (3F,A,C (3F,A,!ped-up!C |!ped! (3G,B,C (3=E,G,!ped-up!C |!ped! (3F,A,C (3F,A,!ped-up!C | %39
!ped! (3=E,G,C (3E,G,!ped-up!C |!ped! (3G,,G,=B, (3D,G,!ped-up!B, |!ped! (3C,G,C (3=E,G,!ped-up!C | %42
!ped! (3G,C=E!ped-up!!ped! (3G,DF!ped-up! | [C=E] C_B,G, | [F,,F,]3 [F,,F,] | %45
 [=E,,=E,]C,[B,,B,][G,,G,] | [A,,A,][F,,F,][=E,,=E,][F,,F,] | [^F,,^F,][G,,G,].[=E,,=E,].[C,,C,] | %48
 [G,,,G,,][A,,,A,,][B,,,B,,][=B,,,=B,,]- | [B,,,B,,] [C,,C,]2 [=E,,=E,]- | %50
 [E,,E,] [G,,G,]2 [G,,G,] |!<(! [C,,C,] C,/C/!pp! C,/C/!<)!=C,/=C/ | %52
 C,/!>(!C/C,/C/ C,/C/C,/!>)!C/ | C,/C/C,/C/ C,!f! [F,,F,] | [=E,,=E,][D,,D,].[E,,E,].[F,,F,] | %55
 [G,,G,]!pp! C,/C/ C,/C/=C,/=C/ | C,/C/C,/C/ C,/C/C,/C/ | C,/C/C,/C/ C, [F,,F,] | %58
 [=E,,=E,][D,,D,].[E,,E,].[F,,F,] | [G,,G,] [C,C][C,C] [F,,F,] | [=E,,=E,][D,,D,].[E,,E,].[F,,F,] | %61
!ped! [G,,G,] [C,C][C,C] [F,,F,]!ped-up! | [B,,B,][A,,A,][B,,B,][G,,G,] | %63
!ped! [F,,F,] z [F,_A,]2- | [F,A,]2 z2!ped-up! |!fff!!ped! [F,,=B,,D,F,]2 F2!ped-up! | %66
!fff!!ped! [F,,=B,,D,F,]2 F2!ped-up! |!fff!!ped! [F,,=B,,D,F,]2 F2!ped-up! | %68
!fff!!ped! [F,,=B,,D,F,]2 F2!ped-up! | [=E,=E] z[K:treble]!pp!!ped! [=EGB]/c/[EGB]/c/ | %70
 [=EGB]/c/[EGB]/c/!ped-up! [FA]/c/[FA]/c/ | [DF]/B/[DF]/B/ [B,DF]/G/[B,DF]/G/ | %72
 [CF]/A/[CF]/A/ [CG]/B/[CG]/B/ |[K:bass]!ped! [F,,=B,,D,F,]2 F2!ped-up! | %74
!ped! [F,,=B,,D,F,]2 F2!ped-up! |!ped! [F,,=B,,D,F,]2 F2!ped-up! |!ped! [F,,=B,,D,F,]2 F2!ped-up! | %77
!p! [^F,^F][K:treble]!pp! [FAc]/d/!ped! [FAc]/d/[FAc]/d/ | %78
 [^FAc]/d/[FAc]/d/!ped-up! [GB]/d/[GB]/d/ |!ped! [B,C=E]/G/[B,CE]/G/ [B,CE]/G/[B,CE]/G/ | %80
 [C=E]/G/[CE]/G/!ped-up! [B,CE]/G/[B,CE]/G/ |"^crescendo" [A,C]/F/[A,C]/F/!p! [DF]/A/[DF]/A/ | %82
 [B,DF]/G/[B,DF]/G/!mp! [C=E]/G/[CE]/G/ | [A,C]/F/[A,C]/F/!mf! [DF]/A/[DF]/A/ | %84
 [B,DF]/G/[B,DF]/G/!f! [C=E]/G/[CE]/G/ |[K:bass] .A,,.[A,CF] .D,.[A,CF] | %86
 .B,,.[G,DF] .C,.[G,B,=E] |!ped! F,/=E,/F,/A,/!ped-up! D,/E,/F,/G,/ | C,/D,/=E,/F,/ B,,/C,/D,/E,/ | %89
!ped! [F,C]3!ped-up! [F,B,] | [F,A,][F,A,] G,/4A,/4G,/4A,/4G,/4A,/4F,/4G,/4 | %91
!ped! F,/=E,/F,/A,/!ped-up! D,/E,/F,/G,/ | C,/D,/=E,/F,/ B,,/C,/D,/E,/ | %93
!ped! [F,,F,] C2!ped-up! B, | [F,A,][F,A,] G,/4A,/4G,/4A,/4G,/4A,/4F,/4G,/4 | %95
 F,/=E,/F,/A,/!f! C,/D,/_E,/=E,/ | F,/=E,/F,/A,/ C,/D,/_E,/=E,/ | F,/=E,/F,/A,/ C,/D,/_E,/=E,/ | %98
 F,/=E,/F,/A,/ C,/D,/_E,/=E,/ |!p! F,/=E,/F,/A,/ C,/D,/_E,/=E,/ | F, z D,/_E,/F,/^F,/ | %101
 G, z D,,/E,,/=F,,/^F,,/ | G,, z E,,/=F,,/^F,,/G,,/ | ._A,,.[_A,CE] z .[A,CE] | %104
 .[_A,CE].[A,CE] z .[A,CE] | .[_A,CE].[A,CE] z .[A,CE] | .[_A,CE].[A,CE] .[F,E].[F,E] | %107
 .[B,_D]"^crescendo".[B,DF] z!mp! .[B,DF] | .[B,_DF].[B,DF] z .[B,DF] | .[B,_DF].[B,DF] z .[B,DF] | %110
 .[B,_DF].[B,DF] .[G,F]!mf!.[G,F] |[K:treble] [CE][CEG] z [CEG] | [CEG][CEG] [A,G][A,G] | %113
!ped! F/D/F/D/ F/D/F/D/!ped-up! |!ped! F/D/F/D/ F/D/F/D/!ped-up! | %115
!ped! ^F/=B,/F/B,/ F/B,/F/B,/!ped-up! |!ped! ^F/=B,/F/B,/ F/B,/F/B,/!ped-up! | %117
[K:bass]!ff!!ped! =B,,/=B,/B,,/B,/ B,,/B,/B,,/B,/ | =B,,/=B,/B,,/B,/ B,,/B,/B,,/B,/!ped-up! | %119
!p! C,3 A,, | G,,3 =E, |!ped! D, ^F,/A,/ D,/A,/!ped-up!F,/A,/ | %122
!ped! D,/=B,/G,/B,/ D,/B,/!ped-up!G,/B,/ |!ped! A,/D/^F,/D/ A,/D/F,/D/!ped-up! | %124
!ped! =B,/D/G,/D/ B,/D/G,/B,/!ped-up! |!ped! A,/C/^F,/A,/ F,/A,/F,/A,/!ped-up! | %126
 .G,/.^F,/.G,/.=B,/ .A,/.G,/.F,/.G,/ |!ped! A,/C/^F,/A,/ F,/A,/F,/A,/!ped-up! | %128
 .G,/.^F,/.G,/._B,/ .A,/.G,/.F,/.G,/ |!mp!"^cresc." D, z!mf! D, z | [G,,G,]4 | %131
!ff! [C,C]/!p!=B,/C/E/ D/C/B,/C/ | G,/^F,/G,/B,/ [CE]2 | D x x2 | G,/^F,/G,/B,/ [CE]2 | D x x2 | %136
!f!!ped! [B,,B,]4!ped-up! | B,4 | B,/A,/B,/D/ E z | [B,D]/A,/B,/D/ E, z | B,/A,/B,/D/ E z | %141
 B,/A,/B,/D/ D/^C/D/B,/ |!ped! [D,D]4!ped-up! | G,/!f!!>(!^F,/G,/!mf!B,/ A,/!mp!G,/F,/!p!G,/!>)! | %144
 D,/^C,/D,/F,/ G, z | D,/^C,/D,/F,/ D/^C/D/B,/ | D,/^C,/D,/F,/ G, z | D,/^C,/D,/F,/ D/^C/D/B,/ | %148
!pp! [D,D][K:treble].[DFA] z .[DFA] | .[DFA].[DFA] z .[DFA] | .[DFA].[DFA] z .[DFA] | %151
 .[DFA].[DFA] z .[DFA] | .[=B,DFG].[B,DFG] z .[B,DFG] | .[=B,DFG].[B,DFG] z .[B,DFG] | %154
 .[=B,DFG].[B,DFG] z .[B,DFG] |!ped! .[=B,DFG].[B,DFG]!ped-up!!ped! z[K:bass] [G,,D,F,]!ped-up! | %156
!pp!"^crescendo" [C,E,][C,E,G,] z [C,E,G,] | [C,E,G,][C,E,G,] z [C,E,G,] | %158
 [C,E,G,][C,E,G,] z [C,E,G,] |!ped! [C,E,G,][C,E,G,]!ped-up!!ped! z [C,E,G,]!ped-up! | %160
!ped! [F,,A,,C,F,][F,,A,,C,F,]!ped-up!!ped! z [F,,A,,C,F,]!ped-up! | %161
 [F,,A,,C,F,][F,,A,,C,F,] z [F,,A,,C,F,] | [F,,A,,C,F,][F,,A,,C,F,] z [F,,A,,C,F,] | %163
 [F,,A,,C,F,][F,,A,,C,F,] z [F,,A,,C,F,] |!ped! [F,A,C] [F,,,F,,]2 [F,,,F,,]- | %165
 [F,,,F,,] [F,,,F,,]2 [F,,,F,,]- | [F,,,F,,] [F,,,F,,]2 [F,,,F,,]- | %167
 [F,,,F,,] [F,,,F,,]2 [F,,,F,,]-!ped-up! |!fff!!ped! [F,,,F,,]2 E,/D,/E,/_G,/!ped-up! | %169
!ped! [F,,,F,,]2 E,/D,/E,/_G,/!ped-up! |!ped! [F,,,F,,]2 E,/D,/E,/_G,/!ped-up! | %171
!ped! [F,,,F,,]2 E,/D,/E,/_G,/ | [F,,,F,,]!ped-up!!ped! [F,,,F,,]2 [F,,,F,,]- | %173
 [F,,,F,,] [F,,,F,,]2 [F,,,F,,]- | [F,,,F,,] [F,,,F,,]2 [F,,,F,,]- | %175
 [F,,,F,,] [F,,,F,,]2 [F,,,F,,]-!ped-up! |!fff!!ped! [F,,,F,,]2 E,/D,/E,/_G,/!ped-up! | %177
!ped! [F,,,F,,]2 E,/D,/E,/_G,/!ped-up! |!ped! [F,,,F,,]2 E,/D,/E,/_G,/!ped-up! | %179
!ped! [F,,,F,,]2 E,/D,/E,/_G,/ | [F,,,F,,]!ped-up! z!f!"^dim." E,/D,/E,/_G,/ | %181
 z2!mf!"^dim." D,/^C,/D,/F,/ | z2!mp! =C,/=B,,/C,/E,/ | z2!p! _B,,/A,,/B,,/D,/ | B,, z .[B,,D,] z | %185
 .[E,G,] z z2 | z/ B,/A,/G,/ F,/E,/D,/C,/ | B,,/A,,/B,,/D,/ F,,/A,,/C,/F,/ | %188
!f! [B,,,F,,B,,] z [B,,D,F,B,] z |!ped! [E,G,B,C] z G/F/E/D/ | C/B,/!ped-up!A,/G,/ F,/E,/D,/C,/ | %191
 B,,/C,/D,/B,,/ F,,/A,,/C,/F,/ |!ped! [B,,,B,,] [B,,D,]/F,/ [B,,D,]/F,/[B,,D,]/F,/ | %193
 [B,,D,]/F,/[B,,D,]/F,/ [B,,D,]/F,/[B,,D,]/F,/!ped-up! | %194
!ped! [B,,C,E,]/F,/[B,,C,E,]/F,/ [B,,C,E,]/F,/[B,,C,E,]/F,/!ped-up! | %195
!ped! [B,,C,E,]/F,/[B,,C,E,]/F,/ [B,,C,E,]/F,/[B,,C,E,]/F,/!ped-up! | %196
!ped! [B,,,B,,] [B,,D,]/F,/ [B,,D,]/F,/[B,,D,]/F,/ | %197
 [B,,D,]/F,/[B,,D,]/F,/ [B,,D,]/F,/[B,,D,]/F,/!ped-up! | %198
!ped! [B,,D,F,]/_A,/[B,,D,F,]/A,/ [B,,D,F,]/A,/[B,,D,F,]/A,/ | %199
 [B,,D,F,]/_A,/[B,,D,F,]/A,/ [B,,D,F,]/A,/[B,,D,F,]/A,/!ped-up! | %200
!ped! [E,,E,] z [E,G,B,]/E/[E,G,B,]/E/ | [E,G,B,]/E/[E,G,B,]/E/ [E,G,B,]/E/[E,G,B,]/E/!ped-up! | %202
!ped! [E,_A,B,]/D/[E,A,B,]/D/ [E,A,B,]/D/[E,A,B,]/D/ | %203
 [E,_A,B,]/D/[E,A,B,]/D/ [E,A,B,]/D/[E,A,B,]/D/!ped-up! | .E.G .B,.E | .[G,G].B, .[E,E].G, | %206
 .[C,C].E, .[G,,G,].C, | .[E,,E,].G,, .[C,,C,].E,, | %208
!ped! [=A,,=A,]/[I:staff -1]=A/[I:staff +1][C,C]/[I:staff -1]c/[I:staff +1] [E,,E,]/[I:staff -1]E/[I:staff +1][A,,A,]/[I:staff -1]A/ | %209
[I:staff +1] [C,,C,]/[I:staff -1]C/[I:staff +1][E,,E,]/[I:staff -1]E/[I:staff +1] [A,,,A,,]/[I:staff -1]A,/[I:staff +1][C,,C,]/[I:staff -1]C/!ped-up! | %210
!ped![I:staff +1] F,,,/F,,/A,,/C,/ F,/C,/A,,/F,,/ | .F,,, [_G,,,_G,,][F,,,F,,][G,,,G,,] | %212
 [F,,,F,,][E,,E,][C,,C,][A,,,A,,]!ped-up! | [F,,,F,,]"^dim." z z2 | %214
!pp!!ped! (3D,F,B,!ped-up! (3D,F,B, |!ped! (3[F,,C,]E,F,!ped-up! (3C,F,A, | %216
!ped! (3D,F,B,!ped-up! (3D,F,B, |!ped! (3F,A,C (3F,A,C!ped-up! |!ped! (3=E,G,C (3E,G,C!ped-up! | %219
 (3F,,A,C (3A,,A,C | (3F,A,C (3G,B,C | A, z z2 |!p! [B,,B,]3 B,, | A,,F,_E,C, | D,B,,A,,B,, | %225
 [B,,B,][C,C].[A,,A,].[G,,F,] |!pp! [C,,C,] [C,=E,][D,F,][E,G,]- | [E,G,] [F,A,]2 [A,,A,]- | %228
 [A,,A,] [C,C]2 [C,,C,] | [F,,F,] F,/F/ F,/F/F,/F/ | F,/!p!F/F,/F/ F,/F/F,/!pp!F/ | %231
 F,/F/F,/F/ F, [B,,,B,,] | [A,,,A,,][G,,,G,,].[A,,,A,,].[B,,,B,,] | [C,,C,]!pp! F,/F/ F,/F/F,/F/ | %234
 F,/!p!F/F,/F/ F,/F/F,/F/ | F,/!pp!F/F,/F/ F,!f! [B,,,B,,] | %236
 [A,,,A,,][G,,,G,,].[A,,,A,,].[B,,,B,,] |!ped! [C,,C,] [F,F][F,F] [B,,,B,,]!ped-up! | %238
 [A,,,A,,][G,,,G,,].[A,,,A,,].[B,,,B,,] |!ped! [C,,C,] [F,F][F,F] [D,,D,]!ped-up! | %240
 [E,,E,][D,,D,][E,,E,][C,,C,] |!ped! [B,,,B,,]!ff! [B,,,_D,,]/B,,/ [B,,,D,,]/B,,/[B,,,D,,]/B,,/ | %242
 [B,,,_D,,]/B,,/[B,,,D,,]/B,,/ [B,,,D,,]/B,,/[B,,,D,,]/B,,/!ped-up! | %243
!fff!!ped! [B,,_D,=E,G,]2 =E/^D/E/G/ | [B,,_D,=E,G,]2 =E/^D/E/G/ | [B,,_D,=E,G,]2 =E/^D/E/G/ | %246
 [B,,_D,=E,G,]2 =E/^D/E/G/!ped-up! |!pp! [C_E]/F/A,/F/ [CE]/F/A,/F/ | [CE]/F/A,/F/ [CE]/F/A,/F/ | %249
 G,/E/B,/E/ E,/C/B,/C/ | F,/D/B,/D/ F,/E/C/E/ |!fff!!ped! [B,,_D,=E,G,]2 =E/^D/E/G/ | %252
 [B,,_D,=E,G,]2 =E/^D/E/G/ | [B,,_D,=E,G,]2 =E/^D/E/G/ | [B,,_D,=E,G,]2 =E/^D/E/G/!ped-up! | %255
[K:treble]!pp! [DF]/G/=B,/G/ [DF]/G/B,/G/ | [DF]/G/=B,/G/ E/G/C/G/ |[K:bass] E, x E, x | %258
 E, x E, x |!pp! D, x G, x | E, x F, x | D, x G, x | E, x F, x |!ff! .D,.[F,B,D] .A,,.[D,G,B,] | %264
 .E,,.[E,G,C] .F,,.[F,A,] |!ped! B,/A,/B,/D/!ped-up! G,/A,/B,/C/ | F,/G,/A,/B,/ E,/F,/G,/A,/ | %267
 .B,.D .G,.C | .F,.B,.E,.A, |!ped! B,/A,/B,/D/!ped-up! G,/A,/B,/C/ | F,/G,/A,/B,/ E,/F,/G,/A,/ | %271
 .B,.D.G,.C | .F,.B,.E,.A, |!ped! B,,/A,,/B,,/D,/ F,,/G,,/_A,,/=A,,/!ped-up! | %274
!ped! B,,/A,,/B,,/D,/ F,,/G,,/_A,,/=A,,/!ped-up! | %275
!ped! B,,/A,,/B,,/D,/ F,,/G,,/_A,,/=A,,/!ped-up! | %276
!ped! B,,/A,,/B,,/D,/ F,,/G,,/_A,,/=A,,/!ped-up! |!p! B,,[K:treble] .[B,DF] z .[B,DF] | %278
 .[B,DF].[B,DF] z .[B,DF] | .[B,DF].[B,DF] z .[B,DF] | .[B,DF].[B,DF] .[G,DF].[G,DF] | %281
"^poco a poco crescendo" .[CEG].[CEG] z .[CEG] | .[CEG].[CEG] z .[CEG] | .[CEG].[CEG] z .[CEG] | %284
 .[CEG].[CEG] .[_A,E_G].[A,EG] | .[_DF_A].[DFA] z .[DFA] | .[_DF_A].[DFA] .[B,FA].[B,FA] | %287
 .[E_GB].[EGB] z .[EGB] | .[E_GB].[EGB] .[C=GB].[CGB] |!f!!ped! [FA][FA][K:bass] F, z!ped-up! | %290
[K:treble]!ff!!ped! [FA][FA][K:bass] F, z!ped-up! |[K:]!ff!!ped! [FA][FA][K:bass] F, z!ped-up! | %292
[K:]!ped! [FA][FA][K:bass] F, z!ped-up! |"^dimin." z2[K:treble] _e/d/e/_g/ | z2 d/^c/d/f/ | %295
 z2 =c/=B/c/!p!e/ | z2!p! B/ z/ z |[K:bass]!pp! [B,D] z [B,D] z | [E,G,B,C] z z2 | %299
[K:treble] z/ B/A/G/ F/E/D/C/ |[K:bass] B,/C/D/B,/ F,/A,/C/F/ | %301
!ff!!ped! [B,,B,][D,D][F,,F,][B,,B,]!ped-up! |!ped! [C,C][E,E][G,G][F,F]!ped-up! | %303
 [E,E][D,D]!ped![C,C][F,,F,]!ped-up! |!ped! [B,,B,][D,D]!ped-up!!ped![G,G][F,F]!ped-up! | %305
 [E,E][D,D]!ped![C,C][F,,F,]!ped-up! |!ped! [B,,B,][D,D]!ped-up!!ped![G,G][F,F]!ped-up! | %307
 [E,E][D,D]!ped![C,C][F,,F,]!ped-up! |!ped! [B,,B,][D,D]!ped-up!!ped![G,G][F,F]!ped-up! | %309
 [E,E][D,D]!ped![C,C][F,,F,]!ped-up! |!ped! [B,,B,] z!ped-up!!ped! [=E,B,_D=E] z!ped-up! | %311
!ped! [F,,,F,,][B,,,B,,][_D,,_D,][=E,,=E,]!ped-up! |!ped! [B,,B,][_D,_D][=D,=D][B,,B,]!ped-up! | %313
!ped! [B,,B,][_D,_D][B,,B,][F,,F,]!ped-up! |!ped! [=E,,=E,][_D,,_D,][B,,,B,,][F,,,F,,]!ped-up! | %315
!ped! [C,E,_G,A,]4- | [C,E,G,A,]4!ped-up! |!p! !fermata![C,E,F,A,]4 | %318
!pp!!8vb(! B,,,/A,,,/B,,,/D,,/ F,,,/G,,,/A,,,/B,,,/ | C,,/=B,,,/C,,/E,,/ F,,,/G,,,/_A,,,/=A,,,/ | %320
 _B,,,/A,,,/B,,,/D,,/ F,,,/G,,,/A,,,/B,,,/ | C,,/=B,,,/C,,/E,,/ F,,,/G,,,/_A,,,/=A,,,/ | %322
 B,,,/A,,,/B,,,/D,,/ F,,,/G,,,/A,,,/B,,,/ | C,,/=B,,,/C,,/E,,/ F,,,/G,,,/_A,,,/=A,,,/ | %324
 _B,,,/A,,,/B,,,/D,,/ F,,,/G,,,/A,,,/B,,,/ | C,,/=B,,,/C,,/E,,/ F,,,/!8vb)!F,,/G,,/A,,/ | %326
 B,,/A,,/B,,/D,/ B,/A,/B,/D/ | [F,F]4 | F,,/=E,,/F,,/A,,/ F,/=E,/F,/A,/ | [F,F]4 | %330
 B,,/A,,/B,,/D,/ B,/A,/B,/D/ |!ped! [F,F]4!ped-up! | F,,/=E,,/F,,/A,,/ F,/=E,/F,/A,/ | %333
!ped! [F,F]4!ped-up! |!pp!"^cresc." B,,/A,,/B,,/D,/ G,,/A,,/B,,/=B,,/ | %335
 C,/=B,,/C,/E,/ A,,/B,,/C,/^C,/ | D,/^C,/D,/F,/ _B,,/=C,/^C,/D,/ | E,/D,/E,/G,/ =E,/^D,/E,/G,/ | %338
!ff!!ped! [=E,,B,,]/=E,/[E,,B,,]/E,/ [E,,B,,]/E,/[E,,B,,]/E,/ | %339
 [=E,,B,,]/=E,/[E,,B,,]/E,/ [E,,B,,]/E,/[E,,B,,]/E,/ | [=E,,B,,=E,] z [E,B,=E]!ped-up! z | z4 | %342
!ped! [F,,F,] z [F,F]!ped-up! z | z4 | z4 | z4 | z2 z !fermata!z |!pp! GFE!fermata!D | z4 | %349
 !fermata!z2!ff!!ped! G,/F,/E,/D,/ | C,/B,,/A,,/G,,/!ped-up! F,/E,/D,/C,/ | B,,/C,/D,/B,,/ F, x | %352
 [B,,D,F,B,] z z2 | [F,,A,,C,F,] z z2 | [B,,,D,,F,,B,,] z z2 |] %355
V:3
 x4 | x4 | x2 F,, x | x4 | x4 | x4 | x4 | x4 | x4 | x4 | x4 | F,4 | F,4 | x4 | x4 | x4 | x4 | x4 | %18
 x4 | x4 | B,, x x2 | x4 | x2 B,,/A,,/G,,/A,,/ | G,,/F,,/E,,/D,,/ .C,,.F,, | x4 | x4 | x4 | x4 | %28
 x4 | x4 | x4 | x4 | [C,,C,]4- | [C,,C,][_D,,_D,] [C,,C,][D,,D,] | x4 | x4 | F,4 | C,4 | F,4 | %39
 C,4 | x4 | C, z =E, z | G, z G, z | x4 | x4 | x4 | x4 | x4 | x4 | x4 | x4 | x4 | x4 | x4 | x4 | %55
 x4 | x4 | x4 | x4 | x4 | x4 | x4 | x4 | x [F,,,_A,,,]/F,,/ [F,,,A,,,]/F,,/[F,,,A,,,]/F,,/ | %64
 [F,,,_A,,,]/F,,/[F,,,A,,,]/F,,/ [F,,,A,,,]/F,,/[F,,,A,,,]/F,,/ | x2 =B,/^A,/B,/D/ | %66
 x2 =B,/^A,/B,/D/ | x2 =B,/^A,/B,/D/ | x2 =B,/^A,/B,/D/ | x2[K:treble] x2 | x4 | x4 | x4 | %73
[K:bass] x2 =B,/^A,/B,/D/ | x2 =B,/^A,/B,/D/ | z2 =B,/^A,/B,/D/ | x2 =B,/^A,/B,/D/ | %77
 x[K:treble] x3 | x4 | x4 | x4 | x4 | x4 | x4 | x4 |[K:bass] x4 | x4 | F,,2 x2 | x4 | x4 | x4 | %91
 x4 | x4 | x4 | x4 | x4 | x4 | x4 | x4 | x4 | x4 | x4 | x4 | x4 | x4 | x4 | x4 | x4 | x4 | x4 | %110
 x4 |[K:treble] x4 | x4 | x4 | x4 | x4 | x4 |[K:bass] x4 | x4 | x4 | x3 =E,, | D,, x D, x | %122
 D,2 x2 | D,4 | D,4 | D, x D, x | G,, x x2 | D, x D, x | G,, x x2 | x4 | x4 | x4 | x4 | %133
 G,/^F,/G,/B,/ [C,C] z | x4 | G,/^F,/G,/B,/ [E,E] z | x4 | E,/!p!D,/E,/G,/ F,/E,/D,/E,/ | x4 | x4 | %140
 x4 | B, x G, x | x4 | G,,2 x2 | x4 | D, x G, x | D, x x2 | D, x G, x | x[K:treble] x3 | x4 | x4 | %151
 x4 | x4 | x4 | x4 | x3[K:bass] x | x4 | x4 | x4 | x4 | x4 | x4 | x4 | x4 | x4 | x4 | x4 | x4 | %168
 x2 E,,/D,,/E,,/_G,,/ | x2 E,,/D,,/E,,/_G,,/ | x2 E,,/D,,/E,,/_G,,/ | x2 E,,/D,,/E,,/_G,,/ | x4 | %173
 x4 | x4 | x4 | x2 E,,/D,,/E,,/_G,,/ | x2 E,,/D,,/E,,/_G,,/ | x2 E,,/D,,/E,,/_G,,/ | %179
 x2 E,,/D,,/E,,/_G,,/ | x4 | x4 | x4 | x4 | x4 | x4 | x4 | x4 | x4 | x4 | x4 | x4 | x4 | x4 | x4 | %195
 x4 | x4 | x4 | x4 | x4 | x4 | x4 | x4 | x4 | x4 | x4 | x4 | x4 | x4 | x4 | x4 | x4 | x4 | x4 | %214
 B,,4 | x4 | B,,4 | x4 | C,4 | F,, z A,, z | C, z C, z | x4 | x4 | x4 | x4 | x4 | x4 | x4 | x4 | %229
 x4 | x4 | x4 | x4 | x4 | x4 | x4 | x4 | x4 | x4 | x4 | x4 | x4 | x4 | x4 | x4 | x4 | x4 | x4 | %248
 x4 | G, x E, x | F, x F, x | x4 | x4 | x4 | x4 |[K:treble] x4 | x4 |[K:bass] E,/F/C/F/ E,/F/C/F/ | %258
 E,/F/C/F/ E,/F/C/F/ | D,/F/B,/F/ G,/D/B,/D/ | E,/E/C/E/ F,/E/C/E/ | D,/F/B,/F/ G,/D/B,/D/ | %262
 E,/E/C/E/ F,/E/C/!ff!E/ | x4 | x4 | B,, x x2 | x4 | B,,3 B,, | B,,B,,B,,B,, | B,, x x2 | x4 | %271
 B,,3 B,, | B,,B,,B,,B,, | B,,, x x2 | B,,, x x2 | B,,, x x2 | B,,, x x2 | B,,,[K:treble] x x2 | %278
 x4 | x4 | x4 | x4 | x4 | x4 | x4 | x4 | x4 | x4 | x4 | x2[K:bass] x2 |[K:treble] x2[K:bass] x2 | %291
[K:] x2[K:bass] x2 |[K:] x2[K:bass] x2 | x2[K:treble] x2 | x4 | x4 | x4 |[K:bass] x4 | x4 | %299
[K:treble] x4 |[K:bass] x4 | x4 | x4 | x4 | x4 | x4 | x4 | x4 | x4 | x4 | x4 | x4 | x4 | x4 | x4 | %315
 z!ff! F,,,/F,,/ F,,,/F,,/F,,,/F,,/ | F,,,/F,,/F,,,/F,,/ F,,,/F,,/F,,,/!p!F,,/ | x4 |!8vb(! x4 | %319
 x4 | x4 | x4 | x4 | x4 | x4 | x5/2!8vb)! x3/2 | x4 | x4 | x4 | x4 | x4 | x4 | x4 | x4 | x4 | x4 | %336
 x4 | x4 | x4 | x4 | x4 | x4 | x4 | x4 | x4 | x4 | x4 | x4 | x4 | x4 | x2 F,, x | %351
 B,,, x F,,/A,,/C,/F,/ | x4 | x4 | x4 |] %355
V:4
 x4 | x4 | x4 | x4 | x4 | x4 | x4 | x4 | x4 | x2 E x | E x E x | x4 | x4 | A,/C/A,/C/ A,/C/A,/C/ | %14
 x4 | x4 | x4 | x4 | [Ff]4 | x4 | B/A/B/d/ c/B/A/B/ | x4 | x4 | x4 | x4 | x4 | x4 | x4 | x4 | x4 | %30
 x4 | x4 | x4 | x4 | x4 | x4 | x4 | x4 | x4 | x4 | x4 | x4 | x4 | x4 | x4 | x4 | x4 | x4 | x4 | %49
 x4 | [C=E] x [DF] x | =E z z x | x4 | x4 | x4 | x3 x | x4 | x4 | x4 | x4 | x4 | x4 | x4 | x4 | %64
 x4 | x4 | x4 | x4 | x4 | x4 | x4 | x4 | x4 | x4 | x4 | x4 | x4 | x4 | x4 | x4 | x4 | z f z d | %82
 z d z =e | z f z d | z [dg] z =e | x4 | x4 | x4 | x4 | x4 | x4 | x4 | x4 | x4 | x4 | x4 | x4 | %97
 x4 | x4 | x4 | x4 | x4 | x4 | x4 | x4 | x4 | x2 FF | F x x2 | x4 | x4 | x2 GG | G x x2 | x2 AA | %113
 A x A x | A x A z | A z A x | A x A x | x4 | x4 | x4 | x4 | x4 | x4 | x4 | x4 | x4 | %126
 .=B/.A/.B/.d/ .c/.B/.A/.B/ | x4 | ._B/.A/.B/.d/ .c/.B/.A/.B/ | x4 | x4 | x4 | x4 | x2 G/^F/G/c/ | %134
 x4 | x2 B/A/B/e/ | B/A/B/d/ c/B/A/B/ | x4 | x2 G2 | F z d/A/B/e/ | d z G2 | x4 | %142
 f/^c/d/f/ =e/d/=c/d/ | x4 | x2 D/^C/D/G/ | F z x2 | x2 D/^C/D/G/ | x4 | d/^c/d/f/ A/=B/=c/^c/ | %149
 d/^c/d/f/ A/=B/=c/^c/ | d/^c/d/f/ A/=B/=c/^c/ | d/^c/d/f/ A/=B/=c/^c/ | d/^c/d/f/ G/A/=B/=c/ | %153
 d/^c/d/f/ G/A/=B/=c/ | d/^c/d/f/ G/A/=B/=c/ | d/^c/d/f/ G/A/_B/=c/ | x4 | x4 | x4 | x4 | x4 | x4 | %162
 x4 | x4 | x4 | x4 | x4 | x4 | x4 | x4 | x4 | x4 | x4 | x4 | x4 | x4 | x4 | x4 | x4 | x4 | x4 | %181
 x4 | x4 | x4 | x4 | x4 | x4 | x4 | B/A/B/d/ x2 | x4 | x4 | x4 | x4 | x4 | x4 | x4 | x4 | x4 | x4 | %199
 x4 | x4 | x4 |!8va(! x4 | x4!8va)! | x4 | x4 | x4 | x4 | x4 | x4 | x4 | x4 | x4 | x4 | x4 | x4 | %216
 x4 | x4 | x4 | x4 | x4 | x4 | x3 B, | A,F_EC | DB,[I:staff +1]A,B, | x4 | x4 | x4 | x4 | x4 | x4 | %231
 x4 | x4 | x4 | x4 | x4 | x4 | x4 | x4 | x4 | x4 | x4 |[I:staff -1] x2 B,2 | x4 | x4 | x4 | x4 | %247
 x4 | x4 | z G z G | z F z F | x4 | x4 | x4 | x4 | x4 | x4 | x4 | x f z c | z d z G | z c z A | %261
 z d z G | z c z A | x4 | x4 | x4 | x4 | B/A/B/d/ G/A/B/c/ | F/G/A/B/ x2 | x4 | x4 | %271
 B/A/B/d/ G/A/B/c/ | F/G/A/B/ x2 | x4 | x4 | x4 | x4 | [DF] x x2 | x4 | x4 | x2 G x | x4 | x4 | %283
 x4 | x2 _A x | x4 | x4 | x4 | x2 c x | c z C/D/E/_G/ | c z C/D/E/_G/ | c z C/D/E/_G/ | %292
 c z C/D/E/_G/ | x4 | x4 | x4 | x4 | x4 | x4 | x4 | x4 | x4 | x4 | x4 | x4 | x4 | x4 | x4 | x4 | %309
 x4 | x4 | x4 | x4 | x4 | x4 | x4 | x4 | x4 | x4 | x4 | x4 | x4 | x4 | x4 | x4 | x4 | x4 | x4 | %328
 x4 | x4 | x4 | x4 | x4 | x4 | x4 | x4 | x4 | x4 | x4 | x4 | x4 | x4 | x4 | x4 | x4 | x4 | x4 | %347
 x4 | x4 | x4 | x4 | x4 | x4 | x4 | x4 |] %355

